X: 35794
T: Sally's Return
R: reel
M: 4/4
K: Gmajor
|:dc|BGGF GABG|A=f g/f/e fedc|BGG^F GABc|AD D/D/D D2 dc|
BGGF GABG|A=f g/f/e fedc|BD D/D/D AD D/D/D|1 BdcA G2:|2 G/G/G FA G2 BA||
|:Gg a/g/f gdc_B|A=f g/f/e fdcA|Bggf gagf|dg g/f/g dcBc|
dggf gdc_B|A=ffe fedc|BD D/D/D AD D/D/D|1 AdcA FGAF:|2 AdcA G4||

